skilled-e-learning-landing-page/src/assets/icon-crypto.svg

<svg width="56.000000" height="56.000000" viewBox="0 0 56 56" fill="none" xmlns="http://www.w3.org/2000/svg" xmlns:xlink="http://www.w3.org/1999/xlink">
	<desc>
			Created with Pixso.
	</desc>
	<defs>
		<linearGradient id="paint_linear_0_444_0" x1="0.000000" y1="0.000000" x2="0.000000" y2="56.000000" gradientUnits="userSpaceOnUse">
			<stop stop-color="#FF6F48"/>
			<stop offset="1.000000" stop-color="#F02AA6"/>
		</linearGradient>
	</defs>
	<circle id="Oval" cx="28.000000" cy="28.000000" r="28.000000" fill="url(#paint_linear_0_444_0)" fill-opacity="1.000000"/>
	<circle id="Oval" cx="28.000000" cy="28.000000" r="28.000000" stroke="#979797" stroke-opacity="0" stroke-width="0.000000"/>
	<path id="Mask" d="M26 28C24.9 28 24 28.8999 24 30C24 31.1001 24.9 32 26 32C27.1 32 28 31.1001 28 30C28 28.8999 27.1 28 26 28ZM22 24C20.9 24 20 24.8999 20 26C20 27.1001 20.9 28 22 28C23.1 28 24 27.1001 24 26C24 24.8999 23.1 24 22 24ZM22 32C20.9 32 20 32.8999 20 34C20 35.1001 20.9 36 22 36C23.1 36 24 35.1001 24 34C24 32.8999 23.1 32 22 32ZM34 24C35.1 24 36 23.1001 36 22C36 20.8999 35.1 20 34 20C32.9 20 32 20.8999 32 22C32 23.1001 32.9 24 34 24ZM30 32C28.9 32 28 32.8999 28 34C28 35.1001 28.9 36 30 36C31.1 36 32 35.1001 32 34C32 32.8999 31.1 32 30 32ZM34 28C32.9 28 32 28.8999 32 30C32 31.1001 32.9 32 34 32C35.1 32 36 31.1001 36 30C36 28.8999 35.1 28 34 28ZM30 24C28.9 24 28 24.8999 28 26C28 27.1001 28.9 28 30 28C31.1 28 32 27.1001 32 26C32 24.8999 31.1 24 30 24ZM26 20C24.9 20 24 20.8999 24 22C24 23.1001 24.9 24 26 24C27.1 24 28 23.1001 28 22C28 20.8999 27.1 20 26 20Z" clip-rule="evenodd" fill="#FFFFFF" fill-opacity="1.000000" fill-rule="evenodd"/>
	<mask id="mask0_447" mask-type="alpha" maskUnits="userSpaceOnUse" x="20.000000" y="20.000000" width="16.000000" height="16.000000">
		<path id="Mask" d="M26 28C24.9 28 24 28.8999 24 30C24 31.1001 24.9 32 26 32C27.1 32 28 31.1001 28 30C28 28.8999 27.1 28 26 28ZM22 24C20.9 24 20 24.8999 20 26C20 27.1001 20.9 28 22 28C23.1 28 24 27.1001 24 26C24 24.8999 23.1 24 22 24ZM22 32C20.9 32 20 32.8999 20 34C20 35.1001 20.9 36 22 36C23.1 36 24 35.1001 24 34C24 32.8999 23.1 32 22 32ZM34 24C35.1 24 36 23.1001 36 22C36 20.8999 35.1 20 34 20C32.9 20 32 20.8999 32 22C32 23.1001 32.9 24 34 24ZM30 32C28.9 32 28 32.8999 28 34C28 35.1001 28.9 36 30 36C31.1 36 32 35.1001 32 34C32 32.8999 31.1 32 30 32ZM34 28C32.9 28 32 28.8999 32 30C32 31.1001 32.9 32 34 32C35.1 32 36 31.1001 36 30C36 28.8999 35.1 28 34 28ZM30 24C28.9 24 28 24.8999 28 26C28 27.1001 28.9 28 30 28C31.1 28 32 27.1001 32 26C32 24.8999 31.1 24 30 24ZM26 20C24.9 20 24 20.8999 24 22C24 23.1001 24.9 24 26 24C27.1 24 28 23.1001 28 22C28 20.8999 27.1 20 26 20Z" clip-rule="evenodd" fill="#FFFFFF" fill-opacity="1.000000" fill-rule="evenodd"/>
	</mask>
</svg>

<svg width="56" height="56" xmlns="http://www.w3.org/2000/svg" xmlns:xlink="http://www.w3.org/1999/xlink"><defs><linearGradient x1="50%" y1="0%" x2="50%" y2="100%" id="a"><stop stop-color="#FF6F48" offset="0%"/><stop stop-color="#F02AA6" offset="100%"/></linearGradient><path d="M26 28c-1.1 0-2 .9-2 2s.9 2 2 2 2-.9 2-2-.9-2-2-2Zm-4-4c-1.1 0-2 .9-2 2s.9 2 2 2 2-.9 2-2-.9-2-2-2Zm0 8c-1.1 0-2 .9-2 2s.9 2 2 2 2-.9 2-2-.9-2-2-2Zm12-8c1.1 0 2-.9 2-2s-.9-2-2-2-2 .9-2 2 .9 2 2 2Zm-4 8c-1.1 0-2 .9-2 2s.9 2 2 2 2-.9 2-2-.9-2-2-2Zm4-4c-1.1 0-2 .9-2 2s.9 2 2 2 2-.9 2-2-.9-2-2-2Zm-4-4c-1.1 0-2 .9-2 2s.9 2 2 2 2-.9 2-2-.9-2-2-2Zm-4-4c-1.1 0-2 .9-2 2s.9 2 2 2 2-.9 2-2-.9-2-2-2Z" id="b"/></defs><g fill="none" fill-rule="evenodd"><circle fill="url(#a)" cx="28" cy="28" r="28"/><use fill="#FFF" xlink:href="#b"/></g></svg>
